icon-svg/smart-switch.svg

<svg xmlns="http://www.w3.org/2000/svg" fill="#44739e" viewBox="0 0 24 24"><path d="M14.038 9.305a.507.507 0 1 0 .508.507.507.507 0 0 0-.508-.507m-1.046.546a.239.239 0 0 1-.239.239.239.239 0 0 1-.239-.239.239.239 0 0 1 .239-.239.239.239 0 0 1 .239.239M22 11.761V11.5h-2.456c0-.356-.024-.712-.044-1.009a11.6 11.6 0 0 0-1.93-1.272 5.54 5.54 0 0 0-1.27-.748 6.58 6.58 0 0 0-1.754-.088H9.061l-1.14.044a7.32 7.32 0 0 0-1.974 1.1c-.39.242-.815.389-1.184.658-.106.077-.156.226-.263.307-.023.3-.047.653-.044 1.009H2v.263h2.456v.436H2v.263h2.456l.044.965a11 11 0 0 0 1.842 1.228 6.05 6.05 0 0 0 1.4.834 12.6 12.6 0 0 0 3.114.087h3.465a7.8 7.8 0 0 0 1.754-.043 6.45 6.45 0 0 0 1.886-1.053c.392-.259 1.333-.622 1.491-1.053a2.05 2.05 0 0 0 .088-.965H22V12.2h-2.456v-.438zm-6.491 3.026a1.13 1.13 0 0 0-.22.175H10.64a14.77 14.77 0 0 1-2.456-.043 1.13 1.13 0 0 0-.175-.22 50.6 50.6 0 0 1 .044-5.57 2 2 0 0 0 .263-.175h5.307c.534 0 1.6-.145 1.842.175.2.261.088 1.07.088 1.491v2.68a8.93 8.93 0 0 1-.044 1.487" class="cls-1" data-name="Colore riempimento 1"/></svg>

<svg xmlns="http://www.w3.org/2000/svg"  fill="#44739e"  width="24" height="24" viewBox="0 0 24 24">
  <path id="Colore_riempimento_1" data-name="Colore riempimento 1" class="cls-1" d="M 14.038,9.305 A 0.507,0.507 0 1 0 14.546,9.812 0.507,0.507 0 0 0 14.038,9.305 Z M 12.992,9.8509998 A 0.23899999,0.23899999 0 0 1 12.753,10.09 0.23899999,0.23899999 0 0 1 12.514,9.8509998 a 0.23899999,0.23899999 0 0 1 0.239,-0.239 0.23899999,0.23899999 0 0 1 0.239,0.239 z M 22,11.761 V 11.5 h -2.456 c 0,-0.356 -0.024,-0.712 -0.044,-1.009 A 11.612,11.612 0 0 0 17.57,9.219 5.54,5.54 0 0 0 16.3,8.471 6.58,6.58 0 0 0 14.546,8.383 H 9.061 l -1.14,0.044 a 7.318,7.318 0 0 0 -1.974,1.1 C 5.557,9.769 5.132,9.916 4.763,10.185 4.657,10.262 4.607,10.411 4.5,10.492 4.477,10.792 4.453,11.145 4.456,11.501 H 2 v 0.263 H 4.456 V 12.2 H 2 v 0.263 H 4.456 L 4.5,13.428 a 11,11 0 0 0 1.842,1.228 6.052,6.052 0 0 0 1.4,0.834 12.611,12.611 0 0 0 3.114,0.087 h 3.465 a 7.806,7.806 0 0 0 1.754,-0.043 6.446,6.446 0 0 0 1.886,-1.053 c 0.392,-0.259 1.333,-0.622 1.491,-1.053 A 2.047,2.047 0 0 0 19.54,12.463 H 22 V 12.2 h -2.456 v -0.438 z m -6.491,3.026 a 1.129,1.129 0 0 0 -0.22,0.175 H 10.64 A 14.771,14.771 0 0 1 8.184,14.919 1.129,1.129 0 0 0 8.009,14.699 50.575,50.575 0 0 1 8.053,9.129 2,2 0 0 0 8.316,8.954 h 5.307 c 0.534,0 1.6,-0.145 1.842,0.175 0.2,0.261 0.088,1.07 0.088,1.491 v 2.68 a 8.931,8.931 0 0 1 -0.044,1.487 z"/>
</svg>
